X:189
T:Slave's Dream. Le4.189, The
N:NB.Note length changed from crotchet to quaver
N:to match the pattern of similar bars.
M:4/4
L:1/8
B:L.Leadley MS#4 c1850
Z:vmp. Peter Dunk 2016
Q:1/4=200
K:Bb
F|F2B2c2d2|f2B2d3d|d2c2d3c|B6zF|F2B2c2d2|f3"NB"Bd3d|
d3cd3c|B4z2B2|e3d d>cB2|e3d d>cB2|B>A c>B d3c|
F6 zF|F2B2c2d2|f2 (ed)c3B|A2e2d2c2|d4F F2A|
c2d2e2f2|g4fe dc|B F Hf2 e A>d c|B4 z4|]

